ui_kit/lib/assets/icons/bug.svg

<svg width="24" height="24" viewBox="0 0 24 24" fill="none" xmlns="http://www.w3.org/2000/svg">
<path fill-rule="evenodd" clip-rule="evenodd" d="M9.82463 4.09404C10.2637 3.87449 10.7976 4.05247 11.0172 4.49155L11.6665 5.79029C11.7766 5.78213 11.8878 5.77798 11.9999 5.77798C12.112 5.77798 12.2232 5.78213 12.3332 5.79029L12.9826 4.49155C13.2022 4.05247 13.7361 3.87449 14.1752 4.09404C14.6143 4.31358 14.7922 4.8475 14.5727 5.28659L14.0714 6.28923C14.83 6.68963 15.4588 7.30312 15.8781 8.05005L17.729 6.81614C18.1374 6.54383 18.6893 6.65421 18.9616 7.06267C19.2339 7.47114 19.1236 8.02301 18.7151 8.29532L16.4264 9.82112C16.4382 9.95329 16.4443 10.0871 16.4443 10.2224V12.0001H19.1109C19.6018 12.0001 19.9998 12.3981 19.9998 12.889C19.9998 13.3799 19.6018 13.7779 19.1109 13.7779H16.4443V15.5556C16.4443 15.6909 16.4382 15.8247 16.4264 15.9568L18.7151 17.4826C19.1236 17.7549 19.2339 18.3068 18.9616 18.7153C18.6893 19.1237 18.1374 19.2341 17.729 18.9618L15.8781 17.7279C15.117 19.0838 13.6655 20 11.9999 20C10.3343 20 8.88276 19.0838 8.12165 17.7279L6.27083 18.9618C5.86236 19.2341 5.31048 19.1237 5.03817 18.7153C4.76587 18.3068 4.87624 17.7549 5.28471 17.4826L7.57337 15.9568C7.56155 15.8247 7.55551 15.6909 7.55551 15.5556V13.7779H4.88888C4.39796 13.7779 4 13.3799 4 12.889C4 12.3981 4.39796 12.0001 4.88888 12.0001H7.55551V10.2224C7.55551 10.0871 7.56155 9.95327 7.57337 9.8211L5.28471 8.29532C4.87624 8.02301 4.76587 7.47114 5.03817 7.06267C5.31048 6.65421 5.86236 6.54383 6.27083 6.81614L8.12167 8.05004C8.54094 7.30311 9.16974 6.68963 9.92843 6.28923L9.42711 5.28659C9.20757 4.8475 9.38554 4.31358 9.82463 4.09404ZM11.9999 7.55573C10.5272 7.55573 9.33326 8.74962 9.33326 10.2224V12.8874L9.33326 12.889L9.33326 12.8906V15.5556C9.33326 17.0284 10.5272 18.2223 11.9999 18.2223C13.4726 18.2223 14.6665 17.0284 14.6665 15.5556V12.8909L14.6665 12.889L14.6665 12.8871V10.2224C14.6665 8.74962 13.4726 7.55573 11.9999 7.55573Z" fill="white"/>
</svg>

<svg xmlns="http://www.w3.org/2000/svg" width="24" height="24" fill="none" viewBox="0 0 24 24"><path fill="#fff" fill-rule="evenodd" d="M9.825 4.094a.889.889 0 0 1 1.192.398l.65 1.298a4.51 4.51 0 0 1 .666 0l.65-1.298a.889.889 0 0 1 1.59.795l-.502 1.002a4.465 4.465 0 0 1 1.807 1.761l1.851-1.234a.889.889 0 1 1 .986 1.48L16.426 9.82c.012.132.018.266.018.401V12h2.667a.889.889 0 0 1 0 1.778h-2.667v1.778c0 .135-.006.269-.018.4l2.29 1.527a.889.889 0 0 1-.987 1.479l-1.85-1.234A4.443 4.443 0 0 1 11.998 20a4.443 4.443 0 0 1-3.877-2.272L6.27 18.962a.889.889 0 0 1-.986-1.48l2.288-1.525a4.5 4.5 0 0 1-.017-.401v-1.778H4.889a.889.889 0 0 1 0-1.778h2.667v-1.778c0-.135.006-.269.017-.4L5.285 8.294a.889.889 0 1 1 .986-1.479L8.12 8.05a4.465 4.465 0 0 1 1.807-1.76l-.5-1.003a.889.889 0 0 1 .397-1.193ZM12 7.556a2.667 2.667 0 0 0-2.667 2.666v5.334a2.667 2.667 0 1 0 5.333 0v-5.334A2.667 2.667 0 0 0 12 7.556Z" clip-rule="evenodd"/></svg>
